src/images/single-assets/OPX.svg

<svg width="48" height="48" viewBox="0 0 48 48" fill="none" xmlns="http://www.w3.org/2000/svg">
<g clip-path="url(#clip0_971_37594)">
<path d="M24 48C37.2548 48 48 37.2548 48 24C48 10.7452 37.2548 0 24 0C10.7452 0 0 10.7452 0 24C0 37.2548 10.7452 48 24 48Z" fill="url(#paint0_linear_971_37594)"/>
<path opacity="0.95" fill-rule="evenodd" clip-rule="evenodd" d="M28.7256 6.57129C26.2923 6.57081 23.9135 7.29193 21.8901 8.64345C19.8666 9.99497 18.2894 11.9162 17.3579 14.1641C16.4264 16.412 16.1824 18.8857 16.6569 21.2723C17.1313 23.6589 18.3028 25.8512 20.0232 27.572C21.7436 29.2927 23.9357 30.4646 26.3222 30.9395C28.7087 31.4144 31.1824 31.1709 33.4305 30.2399C35.6787 29.3088 37.6002 27.732 38.9521 25.7088C40.304 23.6856 41.0256 21.307 41.0256 18.8737C41.0256 15.6113 39.7298 12.4825 37.4231 10.1754C35.1165 7.86835 31.988 6.57193 28.7256 6.57129ZM28.7256 26.3737C27.2415 26.3742 25.7907 25.9345 24.5566 25.1103C23.3224 24.2861 22.3605 23.1144 21.7923 21.7434C21.2242 20.3725 21.0754 18.8638 21.3648 17.4082C21.6542 15.9527 22.3688 14.6157 23.4182 13.5663C24.4676 12.5169 25.8046 11.8023 27.2601 11.5129C28.7157 11.2235 30.2243 11.3723 31.5953 11.9404C32.9663 12.5086 34.138 13.4705 34.9622 14.7047C35.7864 15.9388 36.2261 17.3897 36.2256 18.8737C36.223 20.862 35.432 22.7682 34.0261 24.1742C32.6201 25.5802 30.7139 26.3712 28.7256 26.3737ZM15.3795 38.7749C19.0381 37.6668 21.1057 33.8027 19.9976 30.1441C18.8896 26.4855 15.0254 24.4179 11.3669 25.526C7.70828 26.6341 5.64069 30.4982 6.74876 34.1568C7.85684 37.8153 11.721 39.8829 15.3795 38.7749ZM26.9516 35.7132C28.7592 35.171 30.4131 34.2093 31.7784 32.9065H31.776C33.2206 32.5399 34.5977 31.9461 35.856 31.1473C34.3492 33.8322 32.0084 35.9528 29.1883 37.1879C26.3681 38.4231 23.2222 38.7054 20.2272 37.9921C20.6904 37.3871 21.0766 36.7268 21.3768 36.0265C23.2338 36.3628 25.1439 36.2554 26.9516 35.7132Z" fill="url(#paint1_linear_971_37594)"/>
</g>
<defs>
<linearGradient id="paint0_linear_971_37594" x1="21.1872" y1="0" x2="21.1872" y2="47.5752" gradientUnits="userSpaceOnUse">
<stop stop-color="#E75241"/>
<stop offset="1" stop-color="#D13735"/>
</linearGradient>
<linearGradient id="paint1_linear_971_37594" x1="28.0416" y1="38.4025" x2="28.0416" y2="6.48009" gradientUnits="userSpaceOnUse">
<stop stop-color="white"/>
<stop offset="1" stop-color="white" stop-opacity="0.9"/>
</linearGradient>
<clipPath id="clip0_971_37594">
<rect width="48" height="48" fill="white"/>
</clipPath>
</defs>
</svg>

<svg xmlns="http://www.w3.org/2000/svg" width="48" height="48" fill="none"><g clip-path="url(#a)"><path fill="url(#b)" d="M24 48c13.255 0 24-10.745 24-24S37.255 0 24 0 0 10.745 0 24s10.745 24 24 24"/><path fill="url(#c)" fill-rule="evenodd" d="M28.726 6.571a12.302 12.302 0 1 0-.005 24.605 12.302 12.302 0 0 0 .005-24.605m0 19.803a7.502 7.502 0 1 1 7.5-7.5 7.51 7.51 0 0 1-7.5 7.5m-13.346 12.4a6.922 6.922 0 1 0-4.013-13.248 6.922 6.922 0 0 0 4.012 13.249m11.572-3.06a12 12 0 0 0 4.826-2.807h-.002a14 14 0 0 0 4.08-1.76 14.16 14.16 0 0 1-15.629 6.845 9.2 9.2 0 0 0 1.15-1.965c1.857.336 3.767.228 5.575-.314" clip-rule="evenodd" opacity=".95"/></g><defs><linearGradient id="b" x1="21.187" x2="21.187" y1="0" y2="47.575" gradientUnits="userSpaceOnUse"><stop stop-color="#E75241"/><stop offset="1" stop-color="#D13735"/></linearGradient><linearGradient id="c" x1="28.042" x2="28.042" y1="38.403" y2="6.48" gradientUnits="userSpaceOnUse"><stop stop-color="#fff"/><stop offset="1" stop-color="#fff" stop-opacity=".9"/></linearGradient><clipPath id="a"><path fill="#fff" d="M0 0h48v48H0z"/></clipPath></defs></svg>
